fs/dual_screen_status_bar_20_filled.svg

<svg viewBox="0 0 20 20" fill="none" xmlns="http://www.w3.org/2000/svg" height="1em" width="1em">
  <path d="M16 16H10.5V4H16C17.1046 4 18 4.89543 18 6V14C18 15.1046 17.1046 16 16 16ZM4 4H9.5V16H4C2.89543 16 2 15.1046 2 14V6C2 4.89543 2.89543 4 4 4ZM12.5 6C12.2239 6 12 6.22386 12 6.5C12 6.77614 12.2239 7 12.5 7H16C16.2761 7 16.5 6.77614 16.5 6.5C16.5 6.22386 16.2761 6 16 6H12.5Z" fill="#212121"/>
</svg>

<svg viewBox="0 0 20 20" fill="none" xmlns="http://www.w3.org/2000/svg" height="1em" width="1em">
  <path d="M16 16h-5.5V4H16a2 2 0 0 1 2 2v8a2 2 0 0 1-2 2ZM4 4h5.5v12H4a2 2 0 0 1-2-2V6a2 2 0 0 1 2-2Zm8.5 2a.5.5 0 0 0 0 1H16a.5.5 0 0 0 0-1h-3.5Z" fill="#212121"/>
</svg>
